usr/share/icons/biglinux-icons-material/22/actions/im-google-talk.svg

<svg xmlns="http://www.w3.org/2000/svg" viewBox="0 0 22 22">
  <defs id="defs3051">
    <style type="text/css" id="current-color-scheme">
      .ColorScheme-Text {
        color:#363636;
      }
      </style>
  </defs>
 <path 
     style="fill:currentColor;fill-opacity:1;stroke:none" 
     d="M 11 3 C 6.5818339 3 2.999999 5.6864 3 9 C 3 12.2629 6.4761021 14.911687 10.800781 14.992188 L 10.800781 19 C 19.017202 14.2563 19 11.2658 19 9 C 19 5.6864 15.418165 3 11 3 z M 7.2597656 6.0644531 L 10.341797 6.0644531 L 10.341797 9.1484375 L 10.332031 9.1484375 C 10.338531 9.2214375 10.341797 9.2948406 10.341797 9.3691406 C 10.341797 10.632541 9.375082 11.667997 8.140625 11.779297 L 8.140625 10.886719 C 8.886623 10.779019 9.4609375 10.144941 9.4609375 9.3691406 C 9.4609375 9.2941406 9.4518863 9.2206375 9.4414062 9.1484375 L 7.2597656 9.1484375 L 7.2597656 6.0644531 z M 11.658203 6.0644531 L 14.740234 6.0644531 L 14.740234 9.1484375 L 14.730469 9.1484375 C 14.736969 9.2214375 14.740234 9.2948406 14.740234 9.3691406 C 14.740234 10.632541 13.77352 11.667997 12.539062 11.779297 L 12.539062 10.886719 C 13.285061 10.779019 13.859375 10.144941 13.859375 9.3691406 C 13.859375 9.2941406 13.852277 9.2206375 13.841797 9.1484375 L 11.658203 9.1484375 L 11.658203 6.0644531 z "
     class="ColorScheme-Text"
     />
</svg>

<svg xmlns="http://www.w3.org/2000/svg" viewBox="0 0 22 22"><path d="M11 3C6.582 3 3 5.686 3 9c0 3.263 3.476 5.912 7.8 5.992V19c8.217-4.744 8.2-7.734 8.2-10 0-3.314-3.582-6-8-6zM7.26 6.064h3.082v3.084h-.01a2.42 2.42 0 0 1-2.191 2.63v-.891a1.535 1.535 0 0 0 1.32-1.518c0-.075-.01-.148-.02-.22H7.26V6.063zm4.398 0h3.082v3.084h-.01a2.42 2.42 0 0 1-2.191 2.63v-.891a1.535 1.535 0 0 0 1.303-1.739h-2.184V6.064z" style="fill:currentColor;fill-opacity:1;stroke:none;color:#dedede"/></svg>
